!!!COM: Henri Duparc
!!!CNT: Francais
!!!TXO: Francais
!!!OTL: Testament
!!!LYR: Armand Silvestre
!!!ENC: Jacob Pegg
!!!YOR: Henri Duparc: Complete Songs for Voice and Piano
!!!YOR: New York: Dover publications, inc., 1995 
!!!YOR: ISBN 0-486-28466-2
!!!ODT: 1883/
!!NB: Vocal melody and text only encoded.
!!NB: First instance of melodic material only encoded.
**kern	**silbe
*clef G2	*
*k[b-e-a-]	*
*M3/4	*
*MM[andante]	*
!! tempo indication: Mouvt modere mais sans lenteur
!! created: 6/25/03 16:06
!! last edited: 7/21/03 23:08
=3	=3
4r	.
8r	.
{8c	{Pour
8d	que
8e-	le
=4	=4
4.f	vent
8d-	te
8e-	les
8f	ap-
=5	=5
8g	-por-
8g}	-te}
8r	.
{8g	{Sur
(6cc	l'ai-
12bn)	-le
=6	=6
8b-	noi-
8b-	-re
6g-	d'un
12e-	re-
[4b-	-mord,
=7	=7
8b-]}	|}
8r	.
{4e-	{J'e/-
4e-	-cri-
=8	=8
4e-	-rai
8c	sur
8d	la
8e-	feuil-
8g	-le
=9	=9
4b-	mor-
8b-}	-te}
8r	.
{(6g	{Les
12dd)	tor-
=10	=10
2dd	-tu-
8bn}	-res}
8r	.
=11	=11
4r	.
{8bn	{de
8an	mon
4g	coeur
=12	=12
2ee-}	mort!}
4r	.
!!13-16 rest
=17	=17
*MM85	*
!! tempo marking: un peu plus lent
4r	.
8r	.
{8f#	{Tou-
8f#	-te
8f#	ma
=18	=18
4g	se\-
8g}	-ve}
8r	.
{(6f#	{s'est
12an)	ta-
=19	=19
2.an	-ri-
=20	=20
4g#}	-e}
8r	.
{8g#	{Aux
8g#	clairs
8a#	mi-
=21	=21
8bn	-dis
8bn	de
4b#	ta
4cc#	beau-
!! quarter notes are indicated as 4. in score, but no meter change indicated
!! editorial decision to change back to quarter notes
=22	=22
*MM[andante]	*
2cc#}	-te/,}
4r	.
=23	=23
2.r	.
=24	=24
*MM[andantino]	*
{4.ddn	{Et,
8ddn	comme
8cc#	a\
8bn	la
=25	=25
2dd	feuil-
8cc#	-le
8bn	fle/-
=26	=26
(2dd	-tri-
4ccn	|
=27	=27
4bn)}	-e,}
8r	.
{8g#	{Rien
8an	de
8bn	vi-
=28	=28
4.cc	-vant
8cc	ne
8b-	m'est
8a-	res-
=29	=29
4g}	-te/;}
4r	.
{4cc	{Tes
=30	=30
4ee-	yeux
4dd-	m'ont
4cc	bru^-
=31	=31
4cc	-le/
4.g	jus-
8b-	-qu'a\
=32	=32
(8b-	l'a^-
8a-)	|
4g}	-me,}
4r	.
=33	=33
4r	.
{8g	{Com-
8g	-me
8.cc	des
16dd	so-
=34	=34
[2.dd	-leils
=35	=35
4dd]}	|}
{4.g	{sans
8ee-	mer-
=36	=36
2ee-}	-ci!}
4r	.
=37	=37
2.r	.
=38	=38
{4.c	{Feuil-
8cc	-le
8bn	que
8an	le
=39	=39
2cc#	gouf-
8bn	-fre
8a#	re/-
=40	=40
4dd	-cla-
8dd}	-me,}
8r	.
{4dd	{L'au-
=41	=41
4.ee-	-tan
8cc	va
8dd	m'em-
8ee-	-por-
=42	=42
(6gg-	-ter
12ff)	aus-
4ee-}	-si...}
4r	.
!! 43-47 rest
=48	=48
4r	.
8r	.
{4c	{Mais
8c	a-
=49	=49
4f	-vant,
8f	pour
8d-	qu'il
8e-	te
8f	les
=50	=50
8g	por-
8g}	-te}
8r	.
{8g	{Sur
(6cc	l'ai-
12bn)	-le
=51	=51
8b-	noi-
8b-	-re
(6g-	d'un
12e-	re-
[4b-	-mord,
=52	=52
8b-]}	|}
8r	.
{4e-	{J'e-
4e-	cri-
=53	=53
4e-	-rai
8c	sur
8d	la
8e-	feuil-
8g	-le
=54	=54
4b-	mor-
8b-}	-te}
8r	.
{(6g	{Les
12dd)	tor-
=55	=55
2dd	-tu-
8bn}	-res}
8r	.
=56	=56
4r	.
{8bn	{de
8an	mon
4g	coeur
=57	=57
2ee-}	mort!}
4r	.
!! 59-end piano only
*-	*-
